home/.icons/Gruvbox-Plus-Dark/apps/symbolic/blender-symbolic.svg

<svg xmlns="http://www.w3.org/2000/svg" width="16" height="16" version="1.1">
 <path style="fill:#ebdbb2" d="M 7.171875 0.51367188 C 6.916255 0.51367188 6.6607138 0.61267375 6.4648438 0.80859375 C 6.0731037 1.2003238 6.0731038 1.8308562 6.4648438 2.2226562 L 9.2421875 5 L 2 5 C 1.446 5 1 5.446 1 6 C 1 6.554 1.446 7 2 7 C 3.2758 6.997 4.2728875 6.99917 5.9296875 7 L 0.80664062 12.121094 C 0.41490063 12.512834 0.41490063 13.143356 0.80664062 13.535156 C 1.1983806 13.926896 1.8309562 13.926896 2.2226562 13.535156 C 3.1397362 12.613116 3.8684875 11.888125 5.0546875 10.703125 A 5 5 0 0 0 10 15 A 5 5 0 0 0 15 10 A 5 5 0 0 0 13.533203 6.4667969 L 13.535156 6.4648438 C 13.535156 6.4648438 9.7105062 2.6500938 7.8789062 0.80859375 C 7.6833063 0.61267375 7.427475 0.51367188 7.171875 0.51367188 z M 10 7 A 3 3 0 0 1 13 10 A 3 3 0 0 1 10 13 A 3 3 0 0 1 7 10 A 3 3 0 0 1 10 7 z"/>
 <circle cx="10" cy="10" r="2" style="fill:#ebdbb2"/>
</svg>

<svg width="16" height="16" version="1.1" xmlns="http://www.w3.org/2000/svg">
  <defs>
    <style id="current-color-scheme" type="text/css">.ColorScheme-Text { color:#ebdbb2; } .ColorScheme-Highlight { color:#458588; }</style>
  </defs>
  <path class="ColorScheme-Text" d="m6.9504 2.7136 2.2913 2.2872h-7.241c-0.554 0-1 0.4464-1 1 0 0.554 0.4464 1 1 1 1.276-3e-3 2.272-8.3e-4 3.929 0l-4.6339 4.6302c-0.3917 0.3917-0.3917 1.023 0 1.415 0.3917 0.3917 1.025 0.3917 1.417 0 0.9171-0.922 1.1559-1.1572 2.3419-2.3422 0.34978 2.4631 2.4572 4.2943 4.945 4.297 2.7614 0 5-2.2386 5-5-0.0013-1.3256-0.52901-2.5964-1.467-3.533l2e-3 -0.00202s-3.3373-3.3252-5.1693-5.1672c-0.1956-0.1959-0.4517-0.2951-0.7075-0.29509-0.86484 3.38e-5 -1.348 1.0691-0.7075 1.7101zm3.0486 4.2851c1.6576-5.526e-4 3.0016 1.3434 3.001 3.001-5.52e-4 1.6569-1.3441 2.9996-3.001 2.999-1.6561-5.52e-4 -2.9984-1.3429-2.999-2.999-5.524e-4 -1.6569 1.3421-3.0004 2.999-3.001zm0 1c-1.1046 5.521e-4 -1.9996 0.89643-1.999 2.001-5.524e-4 1.1046 0.89443 2.0004 1.999 2.001 1.1054 5.53e-4 2.0016-0.89565 2.001-2.001 5.53e-4 -1.1054-0.89565-2.0016-2.001-2.001z" fill="currentColor"/>
</svg>
